assets/images/img-guide-badge.svg

<svg xmlns="http://www.w3.org/2000/svg" width="96" height="96" fill="none" viewBox="0 0 96 96"><g clip-path="url(#clip0_101_5004)"><rect width="96" height="96" fill="#464C59"/><path fill="#fff" d="M24 48C24 36.9543 32.9543 28 44 28H83C94.0457 28 103 36.9543 103 48C103 59.0457 94.0457 68 83 68H44C32.9543 68 24 59.0457 24 48Z"/><path fill="#0065D1" d="M47.368 56.288C46.2 56.288 45.216 56.064 44.416 55.616C43.616 55.152 42.992 54.552 42.544 53.816C42.096 53.08 41.832 52.288 41.752 51.44H44.608C44.736 52.176 45.04 52.744 45.52 53.144C46.016 53.544 46.64 53.744 47.392 53.744C48.464 53.744 49.328 53.256 49.984 52.28C50.64 51.288 50.992 49.784 51.04 47.768C50.656 48.424 50.072 48.968 49.288 49.4C48.52 49.832 47.672 50.048 46.744 50.048C45.816 50.048 44.944 49.824 44.128 49.376C43.312 48.928 42.648 48.296 42.136 47.48C41.624 46.664 41.368 45.704 41.368 44.6C41.368 43.592 41.616 42.656 42.112 41.792C42.608 40.928 43.296 40.232 44.176 39.704C45.056 39.176 46.088 38.912 47.272 38.912C48.536 38.912 49.6 39.144 50.464 39.608C51.328 40.072 52.016 40.696 52.528 41.48C53.056 42.264 53.432 43.136 53.656 44.096C53.896 45.056 54.016 46.04 54.016 47.048C54.016 48.92 53.752 50.552 53.224 51.944C52.712 53.32 51.952 54.392 50.944 55.16C49.952 55.912 48.76 56.288 47.368 56.288ZM47.464 47.456C48.056 47.456 48.592 47.328 49.072 47.072C49.552 46.8 49.928 46.448 50.2 46.016C50.472 45.568 50.608 45.072 50.608 44.528C50.608 43.664 50.304 42.952 49.696 42.392C49.104 41.832 48.352 41.552 47.44 41.552C46.544 41.552 45.8 41.832 45.208 42.392C44.616 42.936 44.32 43.632 44.32 44.48C44.32 45.376 44.616 46.096 45.208 46.64C45.8 47.184 46.552 47.456 47.464 47.456ZM63.3789 56.288C62.2109 56.288 61.2269 56.064 60.4269 55.616C59.6269 55.152 59.0029 54.552 58.5549 53.816C58.1069 53.08 57.8429 52.288 57.7629 51.44H60.6189C60.7469 52.176 61.0509 52.744 61.5309 53.144C62.0269 53.544 62.6509 53.744 63.4029 53.744C64.4749 53.744 65.3389 53.256 65.9949 52.28C66.6509 51.288 67.0029 49.784 67.0509 47.768C66.6669 48.424 66.0829 48.968 65.2989 49.4C64.5309 49.832 63.6829 50.048 62.7549 50.048C61.8269 50.048 60.9549 49.824 60.1389 49.376C59.3229 48.928 58.6589 48.296 58.1469 47.48C57.6349 46.664 57.3789 45.704 57.3789 44.6C57.3789 43.592 57.6269 42.656 58.1229 41.792C58.6189 40.928 59.3069 40.232 60.1869 39.704C61.0669 39.176 62.0989 38.912 63.2829 38.912C64.5469 38.912 65.6109 39.144 66.4749 39.608C67.3389 40.072 68.0269 40.696 68.5389 41.48C69.0669 42.264 69.4429 43.136 69.6669 44.096C69.9069 45.056 70.0269 46.04 70.0269 47.048C70.0269 48.92 69.7629 50.552 69.2349 51.944C68.7229 53.32 67.9629 54.392 66.9549 55.16C65.9629 55.912 64.7709 56.288 63.3789 56.288ZM63.4749 47.456C64.0669 47.456 64.6029 47.328 65.0829 47.072C65.5629 46.8 65.9389 46.448 66.2109 46.016C66.4829 45.568 66.6189 45.072 66.6189 44.528C66.6189 43.664 66.3149 42.952 65.7069 42.392C65.1149 41.832 64.3629 41.552 63.4509 41.552C62.5549 41.552 61.8109 41.832 61.2189 42.392C60.6269 42.936 60.3309 43.632 60.3309 44.48C60.3309 45.376 60.6269 46.096 61.2189 46.64C61.8109 47.184 62.5629 47.456 63.4749 47.456ZM73.3659 50.336V47.768H77.8779V43.616H80.4939V47.768H84.9819V50.336H80.4939V54.488H77.8779V50.336H73.3659Z"/></g><defs><clipPath id="clip0_101_5004"><rect width="96" height="96" fill="#fff"/></clipPath></defs></svg>

<svg xmlns="http://www.w3.org/2000/svg" width="96" height="96" fill="none" viewBox="0 0 96 96"><g clip-path="url(#a)"><path fill="#464C59" d="M0 0h96v96H0z"/><path fill="#fff" d="M24 48c0-11.046 8.954-20 20-20h39c11.046 0 20 8.954 20 20s-8.954 20-20 20H44c-11.046 0-20-8.954-20-20"/><path fill="#0065D1" d="M47.368 56.288q-1.752 0-2.952-.672-1.2-.696-1.872-1.8a5.5 5.5 0 0 1-.792-2.376h2.856q.192 1.104.912 1.704.744.6 1.872.6 1.608 0 2.592-1.464.984-1.488 1.056-4.512-.576.984-1.752 1.632a5.1 5.1 0 0 1-2.544.648q-1.392 0-2.616-.672a5.4 5.4 0 0 1-1.992-1.896q-.768-1.224-.768-2.88 0-1.512.744-2.808a5.74 5.74 0 0 1 2.064-2.088q1.32-.792 3.096-.792 1.896 0 3.192.696a5.55 5.55 0 0 1 2.064 1.872 7.8 7.8 0 0 1 1.128 2.616q.36 1.44.36 2.952 0 2.808-.792 4.896-.768 2.064-2.28 3.216-1.488 1.128-3.576 1.128m.096-8.832q.888 0 1.608-.384a3.1 3.1 0 0 0 1.128-1.056q.408-.672.408-1.488 0-1.296-.912-2.136-.888-.84-2.256-.84-1.344 0-2.232.84-.888.816-.888 2.088 0 1.344.888 2.16t2.256.816m15.915 8.832q-1.752 0-2.952-.672-1.2-.696-1.872-1.8a5.5 5.5 0 0 1-.792-2.376h2.856q.192 1.104.912 1.704.744.6 1.872.6 1.608 0 2.592-1.464.984-1.488 1.056-4.512-.576.984-1.752 1.632a5.1 5.1 0 0 1-2.544.648q-1.392 0-2.616-.672a5.4 5.4 0 0 1-1.992-1.896q-.768-1.224-.768-2.88 0-1.512.744-2.808a5.74 5.74 0 0 1 2.064-2.088q1.32-.792 3.096-.792 1.896 0 3.192.696a5.55 5.55 0 0 1 2.064 1.872 7.8 7.8 0 0 1 1.128 2.616q.36 1.44.36 2.952 0 2.808-.792 4.896-.768 2.064-2.28 3.216-1.488 1.128-3.576 1.128m.096-8.832q.888 0 1.608-.384a3.1 3.1 0 0 0 1.128-1.056q.408-.672.408-1.488 0-1.296-.912-2.136-.888-.84-2.256-.84-1.344 0-2.232.84-.888.816-.888 2.088 0 1.344.888 2.16t2.256.816m9.89 2.88v-2.568h4.513v-4.152h2.616v4.152h4.488v2.568h-4.488v4.152h-2.616v-4.152z"/></g><defs><clipPath id="a"><path fill="#fff" d="M0 0h96v96H0z"/></clipPath></defs></svg>
